X:1
T:Madame Vandercourt
T:Madame Vandercourt
T:Charles Dibdin
C:Charles Dibdin
L:1/8
Q:1/4=120
M:6/8
K:Bb
V:1 treble 
V:1
"^Not too quick" f | d2 B c2 F | d2 B c2 B | BBB c2 c | d2 f c2 f | d2 B c2 F | d2 B c2 F | %7
 d2 d e2 e | f2 b f2 e |{e} d2 g f2 A |{c} B2 B B2 d |{d} c2 c cde | f2 d d2 z | f>gf fg_a | %14
 b2 g g2 g | g2 f e2 d | c2 c d2 e | f2 e d2 c | B2 B c2 d | e2 c d2 B | A2 c !fermata!F2 f | %21
 d2 B c2 F | d2 B c2 F | B2 B c2 c | d2 f c2 f | d2 B c2 F | d2 B c2 F | d2 d e2 e | %28
 f2 b !fermata!f2 e | d2 g f2 A | B2 d G2 B | E2 g e2 A | B2 d G2 B | E2 g f2 A | B2 B B2 || %35

